X: 1
T: Da Tushker
O: Shetland
C: Ronald Cooper
Z: John Chambers <jc:trillian.mit.edu>
M: C|
L: 1/8
K: A
|: cB || "A"Aafa edcB | A2cA EAcA | cefg afec | "E7"d2 B2 B2 ag | "D"fgaf "E7"edcB | "A"A2cA EAcA |
| "D"Bcde "E7"fefg | "A"a2 A2 A2 :| dc || "E7"BeGe BGEG | "A"AecA EAcA | cefg afec | "E7"d2 B2 B2 dc |
| "E7"BeGe BGEG | "A"AecA EAcA | "D"Bcde "E7"fefg | "A"a2 A2 A2 dc || "E7"BeGe BGEG | "A"AecA EAcA |
| "A"cefg afec | "E7"d2 B2 B2  ag | "D"fgaf "E7"edcB | "A"A2cA EAcA | "D"Bcde "E7"fefg | "A"a2 A2 A2 |]
